X:1
T:Isaac Watts, 1719 (Psalm 119, Part 16) 86. 86. (C. M.)
T:D minor Oliver Holden, 1796
T:Hundred and Nineteenth Psalm No copyright. Transcribed from The Union Harmony, 1796.
%%score [ 1 2 3 4 ]
L:1/8
M:4/4
K:F
V:1 treble nm="Treble" snm="Tr."
V:2 treble nm="Counter" snm="C."
V:3 treble-8 nm="Tenor" snm="T."
V:4 bass nm="Bass" snm="B."
V:1
 z8 | A4 F2 D2 | F2 E2 D2 F2 | A8 | z4 d4 | A2 A2 A2 A2 | A8 |: d4 c>B AG | A2 A2 d2 e2 | d6 d2 | %10
w: |My soul lies|clea- ving to the|dust;|||||||
 f2 d2 A2 F2 | c8 | A4 d2 d2 | d4 A4 | A8 :| %15
w: |||||
V:2
 z8 | z8 | A4 F2 D2 | F2 E2 D2 ^C2 | D4 F4 | F2 F2 F2 E2 | D8 |: F4 F2 F2 | D2 D2 F2 E2 | F6 D2 | %10
w: ||1.~My soul lies|clea- ving to the|dust; Lord,|give me life di-|vine;|From vain de-|sires and eve- ry|lust, Turn|
 F2 D2 A2 D2 | E8 | F4 F2 F2 | F4 E4 | D8 :| %15
w: off these eyes of|mine,|Turn off these|eyes of|mine.|
V:3
 A4 F2 D2 | F2 E2 D2 F2 | A8 | z8 | z4 A4 | d2 d2 d2 ^c2 | d8 |: A4 A>G FE | D2 F2 A>G FG | A6 d2 | %10
w: 1.~My soul lies|clea- ving to the|dust;||||||||
 f2 d2 A2 F2 | G8 | (d2 ef) A2 F2 | A4 ^c4 | d8 :| %15
w: |||||
V:4
 z8 | z8 | A,4 F,2 D,2 | F,2 E,2 D,2 A,,2 | D,4 D,4 | D,2 D,2 A,2 A,,2 | D,8 |: D,4 F,2 A,2 | %8
w: ||My soul lies|clea- ving to the|dust; *||||
 D,2 D,2 F,2 A,2 | D,6 D,2 | F,2 D,2 A,,2 D,2 | C,8 | F,4 F,2 D,2 | A,,4 A,,4 | D,8 :| %15
w: |||||||

